X:836
T:Reel 836
M:4/4
K:Dmaj
L:1/8
 (3dcB A2 F>A (3dcB | (3ABA  (3GFE F>D (3ECE | (3CEE  (3GFG F>E (3EFG | (3Bcd  (3cdc d>A (3FEE |A>G (3GFE c>D (3GFE | (3FGA B>c d2c2| (3dcd  (3cdc d>f (3edc |d2 (3DCD C2:||2D>F (3GFG A2 (3ABc |d2c2 d2|A>G (3FGA B>D (3ECD |G>E (3GFE F>E (3EFG |A>d (3dcd A>d (3dcd | (3efe f>d  (3cdc d>c|B>G (3GFE F>E (3EFE |B>E (3GFE c>E (3EFE |D2 (3cBA B>D (3CDC |D2C2 C2:|
